X:1937
T:Sallys Hambo
R:Hambo
C:Bruce Sagan
Z:ABC-transkribering av Bruce Sagan
M:3/4
L:1/8
K:G
B>c d2 B2 | g>e ce d2 | g>a bd gb | ag f/g/e/f/ dc |
B>c dB cd | eg fa g2 | g>e ce dB |1 AF G3 A :|2 AF G3 F ||
G2 EG Be | ^d>e fd e2 | g>e ce dB | A>F EF DF |
GF E/F/G/A/ Be | ^d>e fd e2 | g>e ce dB |1 AF G3 F :|2 AF G3 A ||
B>c d2 B2 | g>e ce d2 | g>a bd gb | ag f/g/e/f/ dc |
B>c dB cd | eg fa g2 | g>e ce dB | AF G4 |]
(:musicend:)
(:music:)
%%abc-charset utf-8

